!!!COM: Bach, Johann Sebastian
!!!OTL@@DE: 292. Nimm von uns, Herr, du treuer Gott
!!!OTL@EN: Avert from us, Lord, Thou faithful God, the punishment
!!!SCA: BWV 101.7
**kern	**kern	**kern	**kern
*staff2	*staff2	*staff1	*staff1
*Iorgan	*Iorgan	*Iorgan	*Iorgan
!bass	!tenor	!alto	!sprno
*clefF4	*clefF4	*clefG2	*clefG2
*k[b-]	*k[b-]	*k[b-]	*k[b-]
*met(C)	*met(C)	*met(C)	*met(C)
*M4/4	*M4/4	*M4/4	*M4/4
*MM80	*MM80	*MM80	*MM80
4D\	4d/	4f\	4a/
=1	=1	=1	=1
4C#\	4A/	4e\	4a/
4D\	4A/	4d\	4f/
4B-\	4B-/	4d\	4g/
4F\	4A/	4d\	4a/
=2	=2	=2	=2
4G\	4B-/	4d\	4f/
4A\	4E/	4c#\	4e/
4D;\	4F;/	4A;\	4d;/
8D\L	4d/	4f\	4a/
8E\J	.	.	.
=3	=3	=3	=3
4F\	4c/	4f\	4a/
4E\	4c/	8g\L	4g/
.	.	8f\J	.
4A\	4c/	4e\	4cc/
4F\	4c/	4f\	4a/
=4	=4	=4	=4
4B-\	4B-/	4d\	4f/
4BB-\	4D/	4d\	4g/
4AA;\	4E;/	4c#;\	4a;/
4D\	4F/	4d\	4a/
=5	=5	=5	=5
4A\	4A/	4e\	4cc/
4G\	4B-/	4g\	8dd/L
.	.	.	8ee/J
4F\	4c/	4a\	4ff/
8G\L	8B-/L	4g\	4ee/
8A\J	8c/J	.	.
=6	=6	=6	=6
4B-\	4d/	8f\L	4dd/
.	.	8g\J	.
4A\	4e/	4a\	4cc#/
4D;\	4f;/	4a;\	4dd;/
4G\	4Bn/	4g\	4dd/
=7	=7	=7	=7
!!linebreak: 2
4C\	8c/L	4g\	4ee/
.	8Bn/J	.	.
8D\L	4A/	8f#\L	4dd/
8E\J	.	8g#\J	.
4F#\	4d/	4a\	4cc/
4G#\	4d/	4e\	4bn/
=8	=8	=8	=8
4A\	4c/	8e\L	4a/
.	.	8a\J	.
4E\	4d/	8a\L	4bn/
.	.	8g#\J	.
4AA;\	4c;/	4e;\	4a;/
4BBn\	4G/	4d\	4dd/
=9	=9	=9	=9
4C\	4G/	4e\	4cc/
4D\	4d/	4f\	4bn/
4E\	4c/	4g\	4cc/
4F\	4c/	4f\	4a/
=10	=10	=10	=10
4BB-\	4d/	4f\	4a/
4C\	4G/	4e\	4g/
4FF;\	4A;/	4c;\	4f;/
4FF#\	4A/	4d\	4a/
=11	=11	=11	=11
4GG\	8G/L	4d\	4b-/
.	8F/J	.	.
4AA\	4E/	4c#\	8a/L
.	.	.	8g/J
4BB-\	[2B-/	4d\	4f/
4AA\	.	4e\	4g/
=12	=12	=12	=12
4AA\	8B-/L]	8c#\	4f/
.	8A/J	4d\	.
4AA\	8G/L	.	4e/
.	8A/J	8c#\	.
4D;\	4F#;/	4A;\	4d;/
==	==	==	==
*-	*-	*-	*-
!!!ENC: Craig Stuart Sapp
!!!END: 2004/12/06/
!!chor2scor: -l 2 -s 0.6 -o %b.pmx
